img/new-main/proizFive.svg

<svg width="120" height="120" viewBox="0 0 120 120" fill="none" xmlns="http://www.w3.org/2000/svg">
<rect width="120" height="120" fill="white"/>
<path d="M83 79.5833V36.4167C83 27.9159 76.0841 21 67.5833 21H24.4167C15.9159 21 9 27.9159 9 36.4167V79.5833C9 88.0841 15.9159 95 24.4167 95H67.5833C76.0841 95 83 88.0841 83 79.5833ZM67.5833 27.1667C72.6832 27.1667 76.8333 31.3168 76.8333 36.4167V79.5833C76.8333 84.6832 72.6832 88.8333 67.5833 88.8333H24.4167C19.3168 88.8333 15.1667 84.6832 15.1667 79.5833V36.4167C15.1667 31.3168 19.3168 27.1667 24.4167 27.1667H67.5833Z" fill="#282828" stroke="white" stroke-width="4.81"/>
<mask id="path-2-outside-1_11833_27426" maskUnits="userSpaceOnUse" x="34.2031" y="38.9375" width="20" height="35" fill="black">
<rect fill="white" x="34.2031" y="38.9375" width="20" height="35"/>
<path d="M43.9482 73.3974C42.2072 73.3974 40.6688 73.0196 39.333 72.2641C37.9972 71.5086 36.9515 70.4629 36.196 69.1271C35.4405 67.7913 35.0682 66.2584 35.0792 64.5284H36.1303C36.1194 66.8278 36.8311 68.7056 38.2654 70.1618C39.7108 71.6181 41.605 72.3462 43.9482 72.3462C45.711 72.3462 47.2658 71.9137 48.6126 71.0487C49.9593 70.1837 51.0105 69.0067 51.766 67.5176C52.5215 66.0285 52.8938 64.3532 52.8828 62.4918C52.8719 60.4991 52.4503 58.7745 51.6182 57.3183C50.797 55.862 49.702 54.7397 48.3334 53.9513C46.9756 53.163 45.492 52.7688 43.8825 52.7688C42.5576 52.7688 41.3586 53.0207 40.2856 53.5243C39.2126 54.028 38.2873 54.674 37.5099 55.4624L35.9332 55.1996L37.9041 39.3011H52.8171V40.3523H38.8239L37.1158 54.2798H37.2472C38.0903 53.5024 39.0702 52.8838 40.1871 52.4239C41.3039 51.9531 42.5357 51.7177 43.8825 51.7177C45.6891 51.7177 47.3534 52.1666 48.8754 53.0645C50.4083 53.9513 51.6346 55.205 52.5543 56.8255C53.485 58.4351 53.9449 60.3239 53.9339 62.4918C53.923 64.5722 53.4905 66.4336 52.6365 68.076C51.7824 69.7184 50.6054 71.0159 49.1053 71.9685C47.6052 72.9211 45.8862 73.3974 43.9482 73.3974Z"/>
</mask>
<path d="M43.9482 73.3974C42.2072 73.3974 40.6688 73.0196 39.333 72.2641C37.9972 71.5086 36.9515 70.4629 36.196 69.1271C35.4405 67.7913 35.0682 66.2584 35.0792 64.5284H36.1303C36.1194 66.8278 36.8311 68.7056 38.2654 70.1618C39.7108 71.6181 41.605 72.3462 43.9482 72.3462C45.711 72.3462 47.2658 71.9137 48.6126 71.0487C49.9593 70.1837 51.0105 69.0067 51.766 67.5176C52.5215 66.0285 52.8938 64.3532 52.8828 62.4918C52.8719 60.4991 52.4503 58.7745 51.6182 57.3183C50.797 55.862 49.702 54.7397 48.3334 53.9513C46.9756 53.163 45.492 52.7688 43.8825 52.7688C42.5576 52.7688 41.3586 53.0207 40.2856 53.5243C39.2126 54.028 38.2873 54.674 37.5099 55.4624L35.9332 55.1996L37.9041 39.3011H52.8171V40.3523H38.8239L37.1158 54.2798H37.2472C38.0903 53.5024 39.0702 52.8838 40.1871 52.4239C41.3039 51.9531 42.5357 51.7177 43.8825 51.7177C45.6891 51.7177 47.3534 52.1666 48.8754 53.0645C50.4083 53.9513 51.6346 55.205 52.5543 56.8255C53.485 58.4351 53.9449 60.3239 53.9339 62.4918C53.923 64.5722 53.4905 66.4336 52.6365 68.076C51.7824 69.7184 50.6054 71.0159 49.1053 71.9685C47.6052 72.9211 45.8862 73.3974 43.9482 73.3974Z" fill="black"/>
<path d="M39.333 72.2641L39.2875 72.3446L39.2875 72.3446L39.333 72.2641ZM36.196 69.1271L36.1155 69.1727L36.1155 69.1727L36.196 69.1271ZM35.0792 64.5284V64.4359H34.9873L34.9867 64.5278L35.0792 64.5284ZM36.1303 64.5284L36.2228 64.5288L36.2233 64.4359H36.1303V64.5284ZM38.2654 70.1618L38.1995 70.2268L38.1998 70.227L38.2654 70.1618ZM48.6126 71.0487L48.5626 70.9709L48.5626 70.9709L48.6126 71.0487ZM52.8828 62.4918L52.7903 62.4923L52.7903 62.4924L52.8828 62.4918ZM51.6182 57.3183L51.5376 57.3637L51.5379 57.3642L51.6182 57.3183ZM48.3334 53.9513L48.2869 54.0313L48.2872 54.0315L48.3334 53.9513ZM40.2856 53.5243L40.2463 53.4406L40.2463 53.4406L40.2856 53.5243ZM37.5099 55.4624L37.4947 55.5536L37.5421 55.5615L37.5758 55.5273L37.5099 55.4624ZM35.9332 55.1996L35.8414 55.1882L35.8305 55.2762L35.918 55.2908L35.9332 55.1996ZM37.9041 39.3011V39.2086H37.8224L37.8123 39.2898L37.9041 39.3011ZM52.8171 39.3011H52.9096V39.2086H52.8171V39.3011ZM52.8171 40.3523V40.4448H52.9096V40.3523H52.8171ZM38.8239 40.3523V40.2598H38.742L38.7321 40.341L38.8239 40.3523ZM37.1158 54.2798L37.024 54.2686L37.0112 54.3723H37.1158V54.2798ZM37.2472 54.2798V54.3723H37.2833L37.3099 54.3478L37.2472 54.2798ZM40.1871 52.4239L40.2223 52.5095L40.223 52.5092L40.1871 52.4239ZM48.8754 53.0645L48.8284 53.1441L48.829 53.1445L48.8754 53.0645ZM52.5543 56.8255L52.4739 56.8712L52.4743 56.8719L52.5543 56.8255ZM53.9339 62.4918L54.0264 62.4923L54.0264 62.4923L53.9339 62.4918ZM49.1053 71.9685L49.1549 72.0466L49.1549 72.0466L49.1053 71.9685ZM43.9482 73.3049C42.221 73.3049 40.6987 72.9302 39.3785 72.1836L39.2875 72.3446C40.639 73.109 42.1934 73.4899 43.9482 73.4899V73.3049ZM39.3785 72.1836C38.0573 71.4364 37.0238 70.4028 36.2765 69.0816L36.1155 69.1727C36.8793 70.5231 37.937 71.5809 39.2875 72.3446L39.3785 72.1836ZM36.2765 69.0816C35.53 67.7616 35.1608 66.2449 35.1717 64.529L34.9867 64.5278C34.9757 66.2719 35.3511 67.8211 36.1155 69.1727L36.2765 69.0816ZM35.0792 64.6209H36.1303V64.4359H35.0792V64.6209ZM36.0378 64.528C36.0268 66.8484 36.7458 68.7508 38.1995 70.2268L38.3313 70.0969C36.9163 68.6603 36.212 66.8071 36.2228 64.5288L36.0378 64.528ZM38.1998 70.227C39.665 71.7033 41.5842 72.4387 43.9482 72.4387V72.2537C41.6258 72.2537 39.7565 71.5329 38.3311 70.0967L38.1998 70.227ZM43.9482 72.4387C45.7269 72.4387 47.2994 72.0021 48.6626 71.1266L48.5626 70.9709C47.2322 71.8254 45.6951 72.2537 43.9482 72.2537V72.4387ZM48.6626 71.1266C50.0238 70.2523 51.0859 69.0625 51.8485 67.5594L51.6835 67.4757C50.9351 68.9508 49.8949 70.1152 48.5626 70.9709L48.6626 71.1266ZM51.8485 67.5594C52.6114 66.0557 52.9863 64.3657 52.9753 62.4913L52.7903 62.4924C52.8012 64.3408 52.4316 66.0012 51.6835 67.4757L51.8485 67.5594ZM52.9753 62.4913C52.9643 60.4856 52.5399 58.7449 51.6985 57.2724L51.5379 57.3642C52.3607 58.8042 52.7794 60.5125 52.7903 62.4923L52.9753 62.4913ZM51.6987 57.2728C50.8699 55.803 49.7634 54.6683 48.3795 53.8712L48.2872 54.0315C49.6406 54.8111 50.724 55.921 51.5376 57.3637L51.6987 57.2728ZM48.3798 53.8714C47.0076 53.0746 45.5079 52.6763 43.8825 52.6763V52.8613C45.4761 52.8613 46.9437 53.2514 48.2869 54.0313L48.3798 53.8714ZM43.8825 52.6763C42.5456 52.6763 41.333 52.9305 40.2463 53.4406L40.3249 53.6081C41.3843 53.1108 42.5696 52.8613 43.8825 52.8613V52.6763ZM40.2463 53.4406C39.1641 53.9486 38.2297 54.6007 37.4441 55.3974L37.5758 55.5273C38.345 54.7473 39.2611 54.1074 40.3249 53.6081L40.2463 53.4406ZM37.5252 55.3711L35.9484 55.1083L35.918 55.2908L37.4947 55.5536L37.5252 55.3711ZM36.025 55.211L37.9959 39.3125L37.8123 39.2898L35.8414 55.1882L36.025 55.211ZM37.9041 39.3936H52.8171V39.2086H37.9041V39.3936ZM52.7246 39.3011V40.3523H52.9096V39.3011H52.7246ZM52.8171 40.2598H38.8239V40.4448H52.8171V40.2598ZM38.7321 40.341L37.024 54.2686L37.2076 54.2911L38.9157 40.3635L38.7321 40.341ZM37.1158 54.3723H37.2472V54.1873H37.1158V54.3723ZM37.3099 54.3478C38.1445 53.5782 39.115 52.9654 40.2223 52.5094L40.1518 52.3384C39.0254 52.8022 38.036 53.4266 37.1845 54.2118L37.3099 54.3478ZM40.223 52.5092C41.3272 52.0436 42.5467 51.8102 43.8825 51.8102V51.6252C42.5247 51.6252 41.2805 51.8626 40.1511 52.3387L40.223 52.5092ZM43.8825 51.8102C45.673 51.8102 47.321 52.2549 48.8284 53.1441L48.9224 52.9848C47.3858 52.0783 45.7052 51.6252 43.8825 51.6252V51.8102ZM48.829 53.1445C50.347 54.0227 51.5618 55.2642 52.4739 56.8712L52.6348 56.7799C51.7074 55.1459 50.4696 53.88 48.9217 52.9844L48.829 53.1445ZM52.4743 56.8719C53.3955 58.465 53.8523 60.3371 53.8415 62.4914L54.0264 62.4923C54.0375 60.3107 53.5746 58.4052 52.6344 56.7792L52.4743 56.8719ZM53.8415 62.4913C53.8306 64.5589 53.4009 66.4055 52.5544 68.0333L52.7185 68.1187C53.5801 66.4617 54.0154 64.5855 54.0264 62.4923L53.8415 62.4913ZM52.5544 68.0333C51.7075 69.6619 50.5414 70.9469 49.0557 71.8904L49.1549 72.0466C50.6693 71.0849 51.8573 69.7749 52.7185 68.1187L52.5544 68.0333ZM49.0557 71.8904C47.5718 72.8327 45.8703 73.3049 43.9482 73.3049V73.4899C45.9021 73.4899 47.6387 73.0094 49.1549 72.0466L49.0557 71.8904Z" fill="black" mask="url(#path-2-outside-1_11833_27426)"/>
<rect width="55" height="55" transform="translate(61 61.5)" fill="white"/>
<path d="M88.4964 113.852C81.8572 113.852 75.6154 111.267 70.9207 106.572C66.226 101.877 63.6406 95.6356 63.6406 88.9964C63.6406 82.3572 66.226 76.1154 70.9207 71.4207C75.6154 66.726 81.8572 64.1406 88.4964 64.1406C95.1356 64.1406 101.377 66.726 106.072 71.4207C110.767 76.1154 113.352 82.3572 113.352 88.9964C113.352 95.6356 110.767 101.877 106.072 106.572C101.377 111.267 95.1356 113.852 88.4964 113.852ZM88.4964 65.1983C75.3741 65.1983 64.6983 75.8741 64.6983 88.9964C64.6983 102.119 75.3741 112.794 88.4964 112.794C101.619 112.794 112.294 102.119 112.294 88.9964C112.294 75.8741 101.619 65.1983 88.4964 65.1983Z" fill="#282828"/>
<path d="M88.494 107.504C78.2878 107.504 69.9844 99.2002 69.9844 88.994C69.9844 78.7878 78.2878 70.4844 88.494 70.4844C98.7002 70.4844 107.004 78.7878 107.004 88.994C107.004 99.2002 98.7002 107.504 88.494 107.504ZM88.494 71.5421C78.871 71.5421 71.0421 79.371 71.0421 88.994C71.0421 98.617 78.871 106.446 88.494 106.446C98.117 106.446 105.946 98.617 105.946 88.994C105.946 79.371 98.117 71.5421 88.494 71.5421Z" fill="#282828"/>
<path d="M88.5036 91.6478C87.0456 91.6478 85.8594 90.4616 85.8594 89.0036C85.8594 87.5456 87.0456 86.3594 88.5036 86.3594C89.9616 86.3594 91.1478 87.5456 91.1478 89.0036C91.1478 90.4616 89.9616 91.6478 88.5036 91.6478ZM88.5036 87.4171C87.6288 87.4171 86.9171 88.1288 86.9171 89.0036C86.9171 89.8784 87.6288 90.5901 88.5036 90.5901C89.3784 90.5901 90.0901 89.8784 90.0901 89.0036C90.0901 88.1288 89.3784 87.4171 88.5036 87.4171Z" fill="#282828"/>
<path d="M88.494 87.4075C88.3537 87.4075 88.2192 87.3517 88.12 87.2526C88.0209 87.1534 87.9651 87.0189 87.9651 86.8786V79.4748C87.9651 79.3345 88.0209 79.2 88.12 79.1008C88.2192 79.0016 88.3537 78.9459 88.494 78.9459C88.6342 78.9459 88.7688 79.0016 88.8679 79.1008C88.9671 79.2 89.0228 79.3345 89.0228 79.4748V86.8786C89.0228 87.0189 88.9671 87.1534 88.8679 87.2526C88.7688 87.3517 88.6342 87.4075 88.494 87.4075ZM86.3786 89.5228H82.1478C82.0076 89.5228 81.8731 89.4671 81.7739 89.3679C81.6747 89.2688 81.619 89.1342 81.619 88.994C81.619 88.8537 81.6747 88.7192 81.7739 88.62C81.8731 88.5209 82.0076 88.4651 82.1478 88.4651H86.3786C86.5189 88.4651 86.6534 88.5209 86.7526 88.62C86.8517 88.7192 86.9075 88.8537 86.9075 88.994C86.9075 89.1342 86.8517 89.2688 86.7526 89.3679C86.6534 89.4671 86.5189 89.5228 86.3786 89.5228ZM88.494 75.7728C88.3537 75.7728 88.2192 75.7171 88.12 75.6179C88.0209 75.5188 87.9651 75.3842 87.9651 75.244V71.0132C87.9651 70.873 88.0209 70.7384 88.12 70.6393C88.2192 70.5401 88.3537 70.4844 88.494 70.4844C88.6342 70.4844 88.7688 70.5401 88.8679 70.6393C88.9671 70.7384 89.0228 70.873 89.0228 71.0132V75.244C89.0228 75.3842 88.9671 75.5188 88.8679 75.6179C88.7688 75.7171 88.6342 75.7728 88.494 75.7728ZM88.494 107.504C88.3537 107.504 88.2192 107.448 88.12 107.349C88.0209 107.25 87.9651 107.115 87.9651 106.975V102.744C87.9651 102.452 88.2019 102.215 88.494 102.215C88.7861 102.215 89.0228 102.452 89.0228 102.744V106.975C89.0228 107.115 88.9671 107.25 88.8679 107.349C88.7688 107.448 88.6342 107.504 88.494 107.504ZM98.2167 79.8001C98.1121 79.8001 98.0099 79.7691 97.923 79.7109C97.836 79.6528 97.7683 79.5702 97.7282 79.4736C97.6882 79.377 97.6777 79.2707 97.6981 79.1681C97.7185 79.0655 97.7689 78.9713 97.8428 78.8974L100.834 75.9058C100.934 75.8087 101.068 75.7547 101.207 75.7556C101.346 75.7565 101.479 75.8122 101.578 75.9105C101.676 76.0089 101.732 76.1421 101.732 76.2812C101.733 76.4203 101.679 76.5541 101.582 76.6537L98.5906 79.6453C98.5416 79.6944 98.4833 79.7334 98.4191 79.76C98.355 79.7866 98.2862 79.8002 98.2167 79.8001ZM75.7797 102.237C75.675 102.237 75.5727 102.206 75.4857 102.148C75.3987 102.09 75.3308 102.008 75.2908 101.911C75.2507 101.814 75.2403 101.708 75.2607 101.605C75.2812 101.503 75.3316 101.408 75.4057 101.334L78.3973 98.3428C78.4461 98.2927 78.5045 98.2528 78.5689 98.2254C78.6333 98.1979 78.7025 98.1836 78.7726 98.1831C78.8426 98.1827 78.912 98.1962 78.9767 98.2227C79.0415 98.2493 79.1004 98.2885 79.1499 98.338C79.1994 98.3875 79.2386 98.4464 79.2652 98.5111C79.2918 98.5759 79.3052 98.6453 79.3048 98.7153C79.3043 98.7853 79.29 98.8545 79.2626 98.919C79.2352 98.9834 79.1953 99.0417 79.1452 99.0906L76.1536 102.082C76.1045 102.131 76.0463 102.17 75.9821 102.197C75.9179 102.224 75.8491 102.237 75.7797 102.237ZM106.475 89.5228H102.244C101.952 89.5228 101.715 89.2861 101.715 88.994C101.715 88.7019 101.952 88.4651 102.244 88.4651H106.475C106.767 88.4651 107.004 88.7019 107.004 88.994C107.004 89.2861 106.767 89.5228 106.475 89.5228ZM74.744 89.5228H70.5132C70.373 89.5228 70.2384 89.4671 70.1393 89.3679C70.0401 89.2688 69.9844 89.1342 69.9844 88.994C69.9844 88.8537 70.0401 88.7192 70.1393 88.62C70.2384 88.5209 70.373 88.4651 70.5132 88.4651H74.744C74.8842 88.4651 75.0188 88.5209 75.1179 88.62C75.2171 88.7192 75.2728 88.8537 75.2728 88.994C75.2728 89.1342 75.2171 89.2688 75.1179 89.3679C75.0188 89.4671 74.8842 89.5228 74.744 89.5228ZM101.208 102.237C101.139 102.237 101.07 102.224 101.006 102.197C100.942 102.17 100.883 102.131 100.834 102.082L97.8428 99.0906C97.7937 99.0415 97.7547 98.9832 97.7282 98.9191C97.7016 98.8549 97.6879 98.7862 97.6879 98.7167C97.6879 98.6473 97.7016 98.5785 97.7282 98.5144C97.7547 98.4502 97.7937 98.3919 97.8428 98.3428C97.8919 98.2937 97.9502 98.2548 98.0144 98.2282C98.0785 98.2016 98.1473 98.1879 98.2167 98.1879C98.2862 98.1879 98.3549 98.2016 98.4191 98.2282C98.4832 98.2548 98.5415 98.2937 98.5906 98.3428L101.582 101.334C101.631 101.383 101.67 101.442 101.697 101.506C101.723 101.57 101.737 101.639 101.737 101.708C101.737 101.778 101.723 101.847 101.697 101.911C101.67 101.975 101.631 102.033 101.582 102.082C101.533 102.131 101.475 102.17 101.411 102.197C101.347 102.224 101.278 102.237 101.208 102.237ZM78.7713 79.8001C78.7018 79.8002 78.633 79.7866 78.5688 79.76C78.5046 79.7334 78.4463 79.6944 78.3973 79.6453L75.4057 76.6537C75.3562 76.6047 75.3169 76.5463 75.2901 76.4821C75.2632 76.4178 75.2493 76.3489 75.2491 76.2793C75.249 76.2096 75.2626 76.1406 75.2892 76.0763C75.3158 76.0119 75.3548 75.9534 75.404 75.9041C75.4533 75.8549 75.5118 75.8159 75.5761 75.7893C75.6405 75.7627 75.7095 75.7491 75.7792 75.7493C75.8488 75.7494 75.9177 75.7633 75.982 75.7902C76.0462 75.817 76.1045 75.8563 76.1536 75.9058L79.1452 78.8974C79.2191 78.9713 79.2694 79.0655 79.2898 79.1681C79.3102 79.2707 79.2998 79.377 79.2597 79.4736C79.2197 79.5702 79.152 79.6528 79.065 79.7109C78.9781 79.7691 78.8758 79.8001 78.7713 79.8001Z" fill="#282828"/>
</svg>

<svg width="120" height="120" fill="none" xmlns="http://www.w3.org/2000/svg"><path fill="#fff" d="M0 0h120v120H0z"/><path d="M83 79.583V36.417C83 27.916 76.084 21 67.583 21H24.417C15.916 21 9 27.916 9 36.417v43.166C9 88.084 15.916 95 24.417 95h43.166C76.084 95 83 88.084 83 79.583zM67.583 27.167c5.1 0 9.25 4.15 9.25 9.25v43.166c0 5.1-4.15 9.25-9.25 9.25H24.417c-5.1 0-9.25-4.15-9.25-9.25V36.417c0-5.1 4.15-9.25 9.25-9.25h43.166z" fill="#282828" stroke="#fff" stroke-width="4.81"/><mask id="a" maskUnits="userSpaceOnUse" x="34.203" y="38.938" width="20" height="35" fill="#000"><path fill="#fff" d="M34.203 38.938h20v35h-20z"/><path d="M43.948 73.397c-1.74 0-3.28-.377-4.615-1.133a8.148 8.148 0 01-3.137-3.137c-.755-1.336-1.128-2.869-1.117-4.599h1.051c-.01 2.3.701 4.178 2.135 5.634 1.446 1.456 3.34 2.184 5.683 2.184 1.763 0 3.318-.432 4.665-1.297 1.346-.865 2.398-2.042 3.153-3.531.756-1.49 1.128-3.165 1.117-5.026-.011-1.993-.433-3.717-1.265-5.174-.821-1.456-1.916-2.578-3.285-3.367-1.357-.788-2.841-1.182-4.45-1.182-1.325 0-2.524.252-3.597.755a9.56 9.56 0 00-2.776 1.938l-1.577-.262 1.971-15.9h14.913v1.051H38.824L37.116 54.28h.131a9.793 9.793 0 012.94-1.856c1.117-.47 2.349-.706 3.696-.706 1.806 0 3.47.449 4.992 1.346 1.533.887 2.76 2.141 3.68 3.761.93 1.61 1.39 3.499 1.379 5.667-.011 2.08-.444 3.942-1.297 5.584-.855 1.642-2.032 2.94-3.532 3.893-1.5.952-3.219 1.428-5.157 1.428z"/></mask><path d="M43.948 73.397c-1.74 0-3.28-.377-4.615-1.133a8.148 8.148 0 01-3.137-3.137c-.755-1.336-1.128-2.869-1.117-4.599h1.051c-.01 2.3.701 4.178 2.135 5.634 1.446 1.456 3.34 2.184 5.683 2.184 1.763 0 3.318-.432 4.665-1.297 1.346-.865 2.398-2.042 3.153-3.531.756-1.49 1.128-3.165 1.117-5.026-.011-1.993-.433-3.717-1.265-5.174-.821-1.456-1.916-2.578-3.285-3.367-1.357-.788-2.841-1.182-4.45-1.182-1.325 0-2.524.252-3.597.755a9.56 9.56 0 00-2.776 1.938l-1.577-.262 1.971-15.9h14.913v1.051H38.824L37.116 54.28h.131a9.793 9.793 0 012.94-1.856c1.117-.47 2.349-.706 3.696-.706 1.806 0 3.47.449 4.992 1.346 1.533.887 2.76 2.141 3.68 3.761.93 1.61 1.39 3.499 1.379 5.667-.011 2.08-.444 3.942-1.297 5.584-.855 1.642-2.032 2.94-3.532 3.893-1.5.952-3.219 1.428-5.157 1.428z" fill="#000"/><path d="M39.333 72.264l-.045.08.045-.08zm-3.137-3.137l-.08.046.08-.046zm-1.117-4.599v-.092h-.092v.092h.092zm1.051 0h.093v-.092h-.093v.092zm2.135 5.634l-.066.065.066-.065zm10.348.887l-.05-.078.05.078zm4.27-8.557h-.093.093zm-1.265-5.174l-.08.046.08-.046zm-3.285-3.367l-.046.08.046-.08zm-8.047-.427l-.04-.083.04.083zm-2.776 1.938l-.015.092.047.008.034-.035-.066-.065zm-1.577-.262l-.092-.012-.01.088.087.015.015-.091zm1.971-15.9v-.092h-.082l-.01.08.092.012zm14.913 0h.093v-.092h-.093v.092zm0 1.051v.093h.093v-.093h-.093zm-13.993 0v-.092h-.082l-.01.081.092.011zM37.116 54.28l-.092-.011-.013.103h.105v-.092zm.131 0v.092h.036l.027-.024-.063-.068zm2.94-1.856l.035.086h.001l-.036-.086zm8.688.64l-.047.08h.001l.046-.08zm3.68 3.761l-.081.046.08-.046zm1.379 5.667h.092-.092zm-4.829 9.477l.05.078-.05-.078zm-5.157 1.336c-1.727 0-3.25-.375-4.57-1.121l-.09.16c1.351.765 2.905 1.146 4.66 1.146v-.185zm-4.57-1.121a8.055 8.055 0 01-3.102-3.102l-.16.09a8.24 8.24 0 003.172 3.173l.09-.161zm-3.102-3.102c-.746-1.32-1.115-2.837-1.104-4.553l-.185-.001c-.011 1.744.364 3.293 1.128 4.645l.161-.091zM35.08 64.62h1.051v-.185h-1.05v.185zm.959-.093c-.011 2.32.708 4.223 2.162 5.699l.131-.13c-1.415-1.437-2.119-3.29-2.108-5.568l-.185-.001zm2.162 5.699c1.465 1.476 3.384 2.212 5.748 2.212v-.185c-2.322 0-4.191-.721-5.617-2.157l-.131.13zm5.748 2.212c1.779 0 3.351-.437 4.715-1.312l-.1-.156c-1.33.854-2.868 1.283-4.615 1.283v.185zm4.715-1.312c1.36-.875 2.423-2.064 3.186-3.568l-.165-.083c-.749 1.475-1.79 2.64-3.121 3.495l.1.156zm3.186-3.568c.762-1.503 1.137-3.193 1.126-5.068l-.185.001c.011 1.849-.358 3.51-1.106 4.984l.165.083zm1.126-5.068c-.01-2.005-.435-3.746-1.276-5.219l-.161.092c.823 1.44 1.241 3.149 1.252 5.128h.185zM51.7 57.273c-.83-1.47-1.936-2.605-3.32-3.402l-.092.16c1.354.78 2.437 1.89 3.25 3.333l.162-.091zm-3.32-3.402c-1.371-.796-2.871-1.195-4.496-1.195v.185c1.593 0 3.06.39 4.404 1.17l.093-.16zm-4.496-1.195c-1.337 0-2.55.255-3.637.765l.079.167c1.06-.497 2.245-.747 3.557-.747v-.185zm-3.637.765a9.652 9.652 0 00-2.802 1.956l.132.13a9.467 9.467 0 012.749-1.919l-.079-.167zm-2.72 1.93l-1.578-.263-.03.183 1.577.263.03-.183zm-1.501-.16l1.97-15.898-.183-.023-1.97 15.898.183.023zm1.88-15.817h14.912v-.185H37.904v.185zm14.82-.093v1.051h.185v-1.05h-.185zm.092.959H38.824v.185h13.993v-.185zm-14.085.081l-1.708 13.928.184.022 1.708-13.927-.184-.023zm-1.616 14.031h.131v-.185h-.131v.185zm.194-.024a9.701 9.701 0 012.912-1.839l-.07-.17a9.885 9.885 0 00-2.968 1.873l.126.136zm2.913-1.839c1.104-.465 2.324-.699 3.66-.699v-.185c-1.358 0-2.602.238-3.732.714l.072.17zm3.66-.699c1.79 0 3.438.445 4.945 1.334l.094-.16c-1.536-.906-3.217-1.359-5.04-1.359v.185zm4.946 1.334c1.518.879 2.733 2.12 3.645 3.727l.16-.091c-.927-1.634-2.164-2.9-3.712-3.796l-.093.16zm3.645 3.728c.922 1.593 1.378 3.465 1.368 5.62h.184c.011-2.181-.451-4.087-1.392-5.713l-.16.093zm1.368 5.62c-.011 2.067-.441 3.914-1.288 5.541l.164.086c.862-1.657 1.297-3.534 1.308-5.627h-.184zm-1.288 5.541c-.846 1.629-2.013 2.914-3.498 3.857l.099.157c1.514-.962 2.702-2.272 3.563-3.928l-.164-.086zm-3.498 3.857c-1.484.943-3.186 1.415-5.108 1.415v.185c1.954 0 3.69-.48 5.207-1.443l-.1-.157z" fill="#000" mask="url(#a)"/><path fill="#fff" d="M61 61.5h55v55H61z"/><path d="M88.496 113.852c-6.639 0-12.88-2.585-17.575-7.28-4.695-4.695-7.28-10.936-7.28-17.576 0-6.639 2.585-12.88 7.28-17.575a24.693 24.693 0 0117.575-7.28c6.64 0 12.881 2.585 17.576 7.28 4.695 4.694 7.28 10.936 7.28 17.575 0 6.64-2.585 12.881-7.28 17.576s-10.936 7.28-17.576 7.28zm0-48.654c-13.122 0-23.798 10.676-23.798 23.798 0 13.123 10.676 23.798 23.798 23.798 13.123 0 23.798-10.675 23.798-23.798 0-13.122-10.675-23.798-23.798-23.798z" fill="#282828"/><path d="M88.494 107.504c-10.206 0-18.51-8.304-18.51-18.51 0-10.206 8.304-18.51 18.51-18.51 10.206 0 18.51 8.304 18.51 18.51 0 10.206-8.304 18.51-18.51 18.51zm0-35.962c-9.623 0-17.452 7.829-17.452 17.452 0 9.623 7.829 17.452 17.452 17.452 9.623 0 17.452-7.829 17.452-17.452 0-9.623-7.829-17.452-17.452-17.452z" fill="#282828"/><path d="M88.504 91.648a2.647 2.647 0 01-2.645-2.644 2.647 2.647 0 012.645-2.645 2.647 2.647 0 012.644 2.645 2.647 2.647 0 01-2.644 2.644zm0-4.23c-.875 0-1.587.71-1.587 1.586 0 .874.712 1.586 1.587 1.586.874 0 1.586-.712 1.586-1.586 0-.875-.712-1.587-1.586-1.587z" fill="#282828"/><path d="M88.494 87.407a.53.53 0 01-.529-.528v-7.404a.53.53 0 011.058 0v7.404a.529.529 0 01-.529.528zm-2.115 2.116h-4.231a.529.529 0 010-1.058h4.23a.53.53 0 010 1.058zm2.115-13.75a.529.529 0 01-.529-.529v-4.23a.529.529 0 011.058 0v4.23a.529.529 0 01-.529.529zm0 31.731a.53.53 0 01-.529-.529v-4.231a.53.53 0 011.058 0v4.231a.529.529 0 01-.529.529zM98.217 79.8a.528.528 0 01-.374-.903l2.991-2.991a.53.53 0 01.744.004.526.526 0 01.004.744l-2.991 2.991a.528.528 0 01-.374.155zM75.78 102.237a.53.53 0 01-.374-.903l2.991-2.991a.528.528 0 11.748.748l-2.991 2.991a.538.538 0 01-.374.155zm30.695-12.714h-4.231a.529.529 0 110-1.058h4.231a.53.53 0 010 1.058zm-31.731 0h-4.23a.529.529 0 110-1.058h4.23a.529.529 0 010 1.058zm26.464 12.714a.52.52 0 01-.374-.155l-2.991-2.991a.528.528 0 11.748-.748l2.991 2.991a.54.54 0 01.155.374.537.537 0 01-.529.529zM78.771 79.8a.527.527 0 01-.374-.155l-2.991-2.991a.527.527 0 01.373-.905.527.527 0 01.375.157l2.991 2.991a.529.529 0 01-.374.903z" fill="#282828"/></svg>
